src/symbolic/places/user-trash-full-symbolic.svg

<svg xmlns="http://www.w3.org/2000/svg" width="16" height="16" viewBox="0 0 16 16">
 <defs>
  <style id="current-color-scheme" type="text/css">
   .ColorScheme-Text { color:#565656; } .ColorScheme-Highlight { color:#5294e2; }
  </style>
 </defs>
 <path style="fill:currentColor" class="ColorScheme-Text" d="M 6 0.99414062 C 5 0.99414062 5 1.9941406 5 1.9941406 L 2 1.9941406 C 2 1.9941406 1 1.9956937 1 2.9960938 L 1 3 L 1 4 L 14 3.9960938 L 14 2.9960938 C 14 1.9960938 13 1.9941406 13 1.9941406 L 10 1.9941406 C 10 1.9941406 10 0.99414062 9 0.99414062 L 6 0.99414062 z M 2 5 C 2 5 0.95927 8.3036063 1 10.003906 C 1.03 11.383906 2 14.003906 2 14.003906 C 2.00005 14.527486 2.47642 15.003856 3 15.003906 L 12 15.003906 C 12.52358 15.003856 12.99995 14.527486 13 14.003906 C 13 14.003906 13.96711 11.380712 14 10.007812 C 14.04 8.3078125 13 5.0078125 13 5.0078125 L 2 5 z"/>
</svg>

<svg xmlns="http://www.w3.org/2000/svg" width="16" height="16"><defs><style id="current-color-scheme" type="text/css"></style></defs><path d="M6 .994c-1 0-1 1-1 1H2s-1 .002-1 1.002V4l13-.004v-1c0-1-1-1.002-1-1.002h-3s0-1-1-1H6zM2 5S.96 8.304 1 10.004c.03 1.38 1 4 1 4 0 .523.476 1 1 1h9c.524 0 1-.477 1-1 0 0 .967-2.623 1-3.996.04-1.7-1-5-1-5L2 5z" fill="currentColor" color="#565656"/></svg>
